X:16113
%11500
T:Muñeira de Barganaz
R:muñeira
C:Trad (igües Hevia)
Z:Métodu de Gaita
M:6/8
L:1/8
Q:3/8=150
K:Am
A,B,{D}C|: A,B,{D}C A,B,{D}C|{F}E2 E {G}EEE|
{F}EFE DCB,|{D}CB,A, A,B,{D}C|A,B,{D}C A,B,{D}C|
{F}E2 E {G}EEE|{F}EFE DCB,| [1 A,3 A,B,{D}C:|
 [2 A,3 {D}EEE||
%Error : Single colon in bar
 {F}ECE AGF|E3 {G}EEE|
{F}EFE DCB,|{D}~C2 A, {G}EEE||{F}ECE AGF|
E3 {G}EEE|{F}EFE DC~B,| [1 A,3 {G}EEE
%Warning : No repeat expected, found :|
:|
 [2 A,3 B,{D}CD||
%Error : Single colon in bar
 EDE FED|EDC EDC|
DCB, DCD|E3 B,{D}CD|EDE FED|
EDC EDC|DCB, DCB,| [1 A,3 B,{D}CD
%Warning : No repeat expected, found :|
:|
 [2 A,3 {E}A,B,{D}C||
%Error : Single colon in bar
 A,B,{D}C A,B,{D}C|{F}E2 E
